X: 1
T: Cabin Hunter, The
M: 4/4
L: 1/8
R: reel
K: Edor
GEFD E2EF|GE~E2 dAFD|GEFD E2EF|DFAF DFAF||
(3Bcd AF E2EF|GE~E2 dAFD|FEED E2EF|DFAF DFAF:|
|:Beed efed|(3Bcd ef gfed|Beec dedB|AF~F2 DFAd||
Beed efed|(3Bcd ef g2fg|eg~g2 efge|dcdB ADFA:||
